X: 64
T:Caribou Reel  (Em)
N:page 21
C:Andy De Jarlis
R: Reel
M:2/4
L:1/16
K:Em
Q:1/4=60
B2|"Em"Be2e efed|Be2e efed|"D"Bd2d dedc|"Em"BGBc dedc|
"Em"Be2e efed|Bdef g2(3efg|"Am"afge fde^c|"D"dBAF "Em"E2:|
|:Bc|"Em"B2E2 "Am"EFGA|"Em"B2E2 "Am"EcBA|"D"D3D D2DD|A,D2D D2Bc|
"Em"B2E2 EFGA|BGBe e4|efed "D"B^cdB|AGFD "Em"E4:|
